X:1
T:Polka : La roulotte
Z:Ren Quiniou (http://www.irisa.fr/prive/quiniou)
R:polka
C:Trad.
S:
A:
M:4/4
L:1/8
K:C
Q:1/4=140
AB cA Bc dB | AB cA B2 B2 | AB cA Bc dB | 
AB cA e2 e2 | fe da ed e2 | fe da e2 e2 | 
fe da ed e2 | e2 d2 c2 B2 |]
